svgs/sharp-regular/align-left.svg

<svg xmlns="http://www.w3.org/2000/svg" viewBox="0 0 448 512"><!--! Font Awesome Pro 6.6.0 by @fontawesome - https://fontawesome.com License - https://fontawesome.com/license (Commercial License) Copyright 2024 Fonticons, Inc. --><path d="M24 40L0 40 0 88l24 0 240 0 24 0 0-48-24 0L24 40zm0 128L0 168l0 48 24 0 400 0 24 0 0-48-24 0L24 168zM0 296l0 48 24 0 240 0 24 0 0-48-24 0L24 296 0 296zM24 424L0 424l0 48 24 0 400 0 24 0 0-48-24 0L24 424z"/></svg>

<svg xmlns="http://www.w3.org/2000/svg" viewBox="0 0 448 512"><!--! Font Awesome Pro 6.4.0 by @fontawesome - https://fontawesome.com License - https://fontawesome.com/license (Commercial License) Copyright 2023 Fonticons, Inc. --><path d="M24 40H0V88H24 264h24V40H264 24zm0 128H0v48H24 424h24V168H424 24zM0 296v48H24 264h24V296H264 24 0zM24 424H0v48H24 424h24V424H424 24z"/></svg>
